X:1
T:Welcome Sabbath Morning, 87.87 D
T:I. N. Kieffer, 1871
T:Welcome Sabbath Morning, 87.87 D
T:Public Domain
C:I. N. Kieffer, 1871
Z:Public Domain
%%score 1 2
L:1/8
M:4/4
K:D
V:1 treble 
V:2 bass 
V:1
 [DF]2 [FA]2 [Fd]>[Ac] [GB]>[Gd] | [FA]4 [DF]4 | [CE]2 [DF]2 [EG]>[GB] [FA]>[EG] | [DF]8 | %4
 [DF]2 [FA]2 [Fd]>[Ac] [GB]>[Gd] | [FA]4 [DF]4 | [FA]2 [Fd]2 [Gc]>[GA] [GB]>[Gc] | [Fd]8 | %8
 [FA]>[GB] [FA]>[EG] [DF]2 [EG]2 | [FA]4 [DF]4 | [EG]>[FA] [EG]>[DF] [CE]2 [DF]2 | [EG]4 [CE]4 | %12
 [DF]2 [FA]2 [Fd]>[Ac] [GB]>[Gd] | [FA]4 [DF]4 | [FA]2 [Fd]2 [Gc]>[GA] [GB]>[Gc] | [Fd]8 |] %16
V:2
 [D,A,]2 [D,A,]2 [D,A,]>[D,A,] [D,D]>[D,B,] | [D,D]4 [D,A,]4 | %2
 [A,,A,]2 [A,,A,]2 [A,,A,]>[A,,A,] [A,,A,]>[A,,A,] | [D,A,]8 | %4
 [D,A,]2 [D,A,]2 [D,A,]>[D,A,] [D,D]>[D,B,] | [D,D]4 [D,A,]4 | %6
 [D,D]2 [D,A,]2 [A,,A,]>[A,,A,] [A,,A,]>[A,,A,] | [D,A,]8 | %8
 [D,D]>[D,D] [D,D]>[D,D] [D,A,]2 [D,A,]2 | [D,D]4 [D,A,]4 | %10
 [A,,A,]>[A,,A,] [A,,A,]>[A,,A,] [A,,A,]2 [A,,A,]2 | [A,,A,]8 | %12
 [D,A,]2 [D,A,]2 [D,A,]>[D,A,] [D,D]>[D,B,] | [D,D]4 [D,A,]4 | %14
 [D,D]2 [D,A,]2 [A,,A,]>[A,,A,] [A,,A,]>[A,,A,] | [D,A,]8 |] %16

